img/svg/vk.svg

<svg width="48" height="48" viewBox="0 0 48 48" xmlns="http://www.w3.org/2000/svg">
<g clip-path="url(#clip0_125_103)">
<path fill-rule="evenodd" clip-rule="evenodd" d="M3.37413 3.37413C0 6.74826 0 12.1788 0 23.04V24.96C0 35.8212 0 41.2517 3.37413 44.6259C6.74826 48 12.1788 48 23.04 48H24.96C35.8212 48 41.2517 48 44.6259 44.6259C48 41.2517 48 35.8212 48 24.96V23.04C48 12.1788 48 6.74826 44.6259 3.37413C41.2517 0 35.8212 0 24.96 0H23.04C12.1788 0 6.74826 0 3.37413 3.37413ZM8.10012 14.6001C8.36012 27.0801 14.6001 34.5801 25.5401 34.5801H26.1602V27.4401C30.1802 27.8401 33.22 30.7801 34.44 34.5801H40.1201C38.5601 28.9001 34.4599 25.7601 31.8999 24.5601C34.4599 23.0801 38.0599 19.4801 38.9199 14.6001H33.7598C32.6398 18.5601 29.3202 22.1601 26.1602 22.5001V14.6001H21V28.4401C17.8 27.6401 13.7601 23.7601 13.5801 14.6001H8.10012Z"/>
</g>
<defs>
<clipPath id="clip0_125_103">
<rect width="48" height="48" />
</clipPath>
</defs>
</svg>

<svg width="48" height="48" viewBox="0 0 48 48" xmlns="http://www.w3.org/2000/svg"><g clip-path="url(#clip0_125_103)"><path fill-rule="evenodd" clip-rule="evenodd" d="M3.374 3.374C0 6.748 0 12.18 0 23.04v1.92c0 10.861 0 16.292 3.374 19.666C6.748 48 12.18 48 23.04 48h1.92c10.861 0 16.292 0 19.666-3.374C48 41.252 48 35.82 48 24.96v-1.92c0-10.861 0-16.292-3.374-19.666C41.252 0 35.82 0 24.96 0h-1.92C12.179 0 6.748 0 3.374 3.374zM8.1 14.6c.26 12.48 6.5 19.98 17.44 19.98h.62v-7.14c4.02.4 7.06 3.34 8.28 7.14h5.68c-1.56-5.68-5.66-8.82-8.22-10.02 2.56-1.48 6.16-5.08 7.02-9.96h-5.16c-1.12 3.96-4.44 7.56-7.6 7.9v-7.9H21v13.84c-3.2-.8-7.24-4.68-7.42-13.84H8.1z"/></g><defs><clipPath id="clip0_125_103"><path d="M0 0h48v48H0z"/></clipPath></defs></svg>
